X:1
T:The Quaker's Wife (The Gates of Derry)
L:1/4
Q:1/4=160
M:6/8
K:D
|:"D""^The Quaker's Wife (The Gates of Derry)" def A2 f |"G" g2 f"A" e2 A |"D" def AFA |"G" B3"D" d2 A |
"D" def Adf |"G" agf"A" e2 A |"D" def AFA |"G" B3"D" d2 A ::
"D" d2 f a2 f |"G" b2 g a2 f |"Bm" def agf |"A" f3 a2 a |
"G" b2 g efg |"F#m" a2 f d2 A |"Em" def AFA |"A" B3"D" d2 A ::
